img/logo.svg

<svg width="128" height="17" viewBox="0 0 128 17" fill="none" xmlns="http://www.w3.org/2000/svg">
<path d="M0 16.9813V0H3.1825L11.0437 5.51H11.1625L19.0238 0H22.2062V16.9813H18.4062V4.75L13.015 8.36V16.9813H9.215V8.36L3.8 4.75V16.9813H0Z" fill="#0A224A"/>
<path d="M25.7734 16.9813V0H29.5734V16.9813H25.7734Z" fill="#0A224A"/>
<path d="M33.1312 16.9813V0H36.9787L48.9963 12.2075V0H52.7963V16.9813H48.9488L36.9313 4.75V16.9813H33.1312Z" fill="#0A224A"/>
<path d="M56.3534 16.9813V0H60.1534V16.9813H56.3534Z" fill="#0A224A"/>
<path d="M63.7112 16.9813V0H66.8937L74.755 5.51H74.8737L82.735 0H85.9175V16.9813H82.1175V4.75L76.7262 8.36V16.9813H72.9262V8.36L67.5112 4.75V16.9813H63.7112Z" fill="#0A224A"/>
<path d="M88.0596 16.9813L95.7071 0H101.573L109.221 16.9813H105.088L103.473 13.395H93.8071L92.1921 16.9813H88.0596ZM95.1846 10.3075H102.096L98.7946 2.96875H98.4859L95.1846 10.3075Z" fill="#0A224A"/>
<path d="M111.362 16.9813V0H115.162V13.8938H127.583V16.9813H111.362Z" fill="#0A224A"/>
</svg>

<svg width="128" height="17" fill="none" xmlns="http://www.w3.org/2000/svg">
  <path d="M0 16.981V0h3.183l7.86 5.51h.12L19.023 0h3.183v16.981h-3.8V4.75l-5.391 3.61v8.621h-3.8V8.36L3.8 4.75v12.231H0ZM25.773 16.981V0h3.8v16.981h-3.8ZM33.131 16.981V0h3.848l12.017 12.207V0h3.8v16.981H48.95L36.93 4.75v12.231h-3.8ZM56.353 16.981V0h3.8v16.981h-3.8ZM63.711 16.981V0h3.183l7.861 5.51h.119L82.735 0h3.183v16.981h-3.8V4.75l-5.392 3.61v8.621h-3.8V8.36l-5.415-3.61v12.231h-3.8ZM88.06 16.981 95.707 0h5.866l7.648 16.981h-4.133l-1.615-3.586h-9.666l-1.615 3.586H88.06Zm7.125-6.674h6.911L98.795 2.97h-.31l-3.3 7.338ZM111.362 16.981V0h3.8v13.894h12.421v3.087h-16.221Z" fill="#0A224A"/>
</svg>
